public/library/amina-icon-light.svg

<svg xmlns="http://www.w3.org/2000/svg" width="24" height="24" fill="none" viewBox="0 0 24 24"><g clip-path="url(#a)"><g clip-path="url(#b)"><path fill="#da291c" d="M0 0h24v24H0z"/><path fill="#fff" d="M9.75 4.5h4.5v5.25h5.25v4.5h-5.25v5.25h-4.5v-5.25H4.5v-4.5h5.25z"/></g></g><defs><clipPath id="a"><rect width="24" height="24" fill="#fff" rx="12"/></clipPath><clipPath id="b"><path fill="#fff" d="M0 0h24v24H0z"/></clipPath></defs></svg>

<?xml version="1.0" encoding="UTF-8"?> <svg xmlns="http://www.w3.org/2000/svg" width="24" height="24" viewBox="0 0 24 24" fill="none"><g clip-path="url(#clip0_3978_25788)"><g clip-path="url(#clip1_3978_25788)"><path d="M0 0H24V24H0V0Z" fill="#DA291C"></path><path d="M9.75 4.5H14.25V9.75H19.5V14.25H14.25V19.5H9.75V14.25H4.5V9.75H9.75V4.5Z" fill="white"></path></g></g><defs><clipPath id="clip0_3978_25788"><rect width="24" height="24" rx="12" fill="white"></rect></clipPath><clipPath id="clip1_3978_25788"><rect width="24" height="24" fill="white"></rect></clipPath></defs></svg>
